V6_wwwroot/ptn/core/icons/fa6/svgs/solid/pallet.svg

<svg xmlns="http://www.w3.org/2000/svg" viewBox="0 0 640 512"><!--! Font Awesome Free 6.7.2 by @fontawesome - https://fontawesome.com License - https://fontawesome.com/license/free (Icons: CC BY 4.0, Fonts: SIL OFL 1.1, Code: MIT License) Copyright 2024 Fonticons, Inc. --><path d="M32 320c-17.7 0-32 14.3-32 32s14.3 32 32 32l32 0 0 64-32 0c-17.7 0-32 14.3-32 32s14.3 32 32 32l64 0 224 0 224 0 64 0c17.7 0 32-14.3 32-32s-14.3-32-32-32l-32 0 0-64 32 0c17.7 0 32-14.3 32-32s-14.3-32-32-32l-64 0-224 0L96 320l-64 0zm96 64l160 0 0 64-160 0 0-64zm224 0l160 0 0 64-160 0 0-64z"/></svg>

<svg xmlns="http://www.w3.org/2000/svg" viewBox="0 0 640 512"><!--! Font Awesome Free 6.4.2 by @fontawesome - https://fontawesome.com License - https://fontawesome.com/license/free (Icons: CC BY 4.0, Fonts: SIL OFL 1.1, Code: MIT License) Copyright 2023 Fonticons, Inc. --><path d="M32 320c-17.7 0-32 14.3-32 32s14.3 32 32 32H64v64H32c-17.7 0-32 14.3-32 32s14.3 32 32 32H96 320 544h64c17.7 0 32-14.3 32-32s-14.3-32-32-32H576V384h32c17.7 0 32-14.3 32-32s-14.3-32-32-32H544 320 96 32zm96 64H288v64H128V384zm224 0H512v64H352V384z"/></svg>
